static/img/kroki/e24c0efb262cf40c383c6c4bf002debc.svg

<?xml version="1.0" encoding="us-ascii" standalone="no"?><svg xmlns="http://www.w3.org/2000/svg" xmlns:xlink="http://www.w3.org/1999/xlink" contentStyleType="text/css" height="252px" preserveAspectRatio="none" style="width:478px;height:252px;" version="1.1" viewBox="0 0 478 252" width="478px" zoomAndPan="magnify"><defs/><g><!--class azure_cosmos_db_restorable_account--><g id="elem_azure_cosmos_db_restorable_account"><rect codeLine="23" fill="#3D176E" height="39.7891" id="azure_cosmos_db_restorable_account" rx="2.5" ry="2.5" style="stroke:#000D19;stroke-width:0.5;" width="354" x="62" y="7"/><ellipse cx="77" cy="26.8945" fill="#ADD1B2" rx="11" ry="11" style="stroke:#181818;stroke-width:1.0;"/><path d="M79.9688,32.5352 Q79.3906,32.832 78.75,32.9727 Q78.1094,33.1289 77.4063,33.1289 Q74.9063,33.1289 73.5781,31.4883 Q72.2656,29.832 72.2656,26.707 Q72.2656,23.582 73.5781,21.9258 Q74.9063,20.2695 77.4063,20.2695 Q78.1094,20.2695 78.75,20.4258 Q79.4063,20.582 79.9688,20.8789 L79.9688,23.5977 Q79.3438,23.0195 78.75,22.7539 Q78.1563,22.4727 77.5313,22.4727 Q76.1875,22.4727 75.5,23.5508 Q74.8125,24.6133 74.8125,26.707 Q74.8125,28.8008 75.5,29.8789 Q76.1875,30.9414 77.5313,30.9414 Q78.1563,30.9414 78.75,30.6758 Q79.3438,30.3945 79.9688,29.8164 L79.9688,32.5352 Z " fill="#000000"/><text fill="#D9B8FF" font-family="Helvetica" font-size="17" lengthAdjust="spacing" textLength="312" x="96" y="32.7798">azure_cosmos_db_restorable_account</text></g><!--class azure_cosmos_db_restorable_mongo_db_collection--><g id="elem_azure_cosmos_db_restorable_mongo_db_collection"><rect codeLine="26" fill="#3D176E" height="39.7891" id="azure_cosmos_db_restorable_mongo_db_collection" rx="2.5" ry="2.5" style="stroke:#000D19;stroke-width:0.5;" width="464" x="7" y="206.58"/><ellipse cx="22" cy="226.4745" fill="#ADD1B2" rx="11" ry="11" style="stroke:#181818;stroke-width:1.0;"/><path d="M24.9688,232.1152 Q24.3906,232.412 23.75,232.5527 Q23.1094,232.7089 22.4063,232.7089 Q19.9063,232.7089 18.5781,231.0683 Q17.2656,229.412 17.2656,226.287 Q17.2656,223.162 18.5781,221.5058 Q19.9063,219.8495 22.4063,219.8495 Q23.1094,219.8495 23.75,220.0058 Q24.4063,220.162 24.9688,220.4589 L24.9688,223.1777 Q24.3438,222.5995 23.75,222.3339 Q23.1563,222.0527 22.5313,222.0527 Q21.1875,222.0527 20.5,223.1308 Q19.8125,224.1933 19.8125,226.287 Q19.8125,228.3808 20.5,229.4589 Q21.1875,230.5214 22.5313,230.5214 Q23.1563,230.5214 23.75,230.2558 Q24.3438,229.9745 24.9688,229.3964 L24.9688,232.1152 Z " fill="#000000"/><text fill="#D9B8FF" font-family="Helvetica" font-size="17" lengthAdjust="spacing" textLength="422" x="41" y="232.3598">azure_cosmos_db_restorable_mongo_db_collection</text></g><!--class azure_cosmos_db_restorable_mongo_db_database--><g id="elem_azure_cosmos_db_restorable_mongo_db_database"><rect codeLine="29" fill="#3D176E" height="39.7891" id="azure_cosmos_db_restorable_mongo_db_database" rx="2.5" ry="2.5" style="stroke:#000D19;stroke-width:0.5;" width="460" x="9" y="106.79"/><ellipse cx="24" cy="126.6845" fill="#ADD1B2" rx="11" ry="11" style="stroke:#181818;stroke-width:1.0;"/><path d="M26.9688,132.3252 Q26.3906,132.622 25.75,132.7627 Q25.1094,132.9189 24.4063,132.9189 Q21.9063,132.9189 20.5781,131.2783 Q19.2656,129.622 19.2656,126.497 Q19.2656,123.372 20.5781,121.7158 Q21.9063,120.0595 24.4063,120.0595 Q25.1094,120.0595 25.75,120.2158 Q26.4063,120.372 26.9688,120.6689 L26.9688,123.3877 Q26.3438,122.8095 25.75,122.5439 Q25.1563,122.2627 24.5313,122.2627 Q23.1875,122.2627 22.5,123.3408 Q21.8125,124.4033 21.8125,126.497 Q21.8125,128.5908 22.5,129.6689 Q23.1875,130.7314 24.5313,130.7314 Q25.1563,130.7314 25.75,130.4658 Q26.3438,130.1845 26.9688,129.6064 L26.9688,132.3252 Z " fill="#000000"/><text fill="#D9B8FF" font-family="Helvetica" font-size="17" lengthAdjust="spacing" textLength="418" x="43" y="132.5698">azure_cosmos_db_restorable_mongo_db_database</text></g><!--link azure_cosmos_db_restorable_account to azure_cosmos_db_restorable_mongo_db_database--><g id="link_azure_cosmos_db_restorable_account_azure_cosmos_db_restorable_mongo_db_database"><path codeLine="32" d="M239,47.22 C239,64.36 239,83.27 239,100.41 " fill="none" id="azure_cosmos_db_restorable_account-to-azure_cosmos_db_restorable_mongo_db_database" style="stroke:#1A83AF;stroke-width:2.0;"/><polygon fill="#1A83AF" points="239,106.41,243,97.41,239,101.41,235,97.41,239,106.41" style="stroke:#1A83AF;stroke-width:2.0;"/></g><!--link azure_cosmos_db_restorable_mongo_db_database to azure_cosmos_db_restorable_mongo_db_collection--><g id="link_azure_cosmos_db_restorable_mongo_db_database_azure_cosmos_db_restorable_mongo_db_collection"><path codeLine="33" d="M239,147.01 C239,164.15 239,183.06 239,200.2 " fill="none" id="azure_cosmos_db_restorable_mongo_db_database-to-azure_cosmos_db_restorable_mongo_db_collection" style="stroke:#1A83AF;stroke-width:2.0;"/><polygon fill="#1A83AF" points="239,206.2,243,197.2,239,201.2,235,197.2,239,206.2" style="stroke:#1A83AF;stroke-width:2.0;"/></g><!--SRC=[bP1DJy9048Rl_HMRS2QX4WKk9fM4w8KOyMPCCzsTmeRj3faT963yxrBnexO2zZhppBpFpC8QL5YiPAiAB3Ba48MbzIjWA5J2J9inEMBLoNF8-uDwSq9UpW9JA53Tedj1iHhgnEF2wgN74DH5fNK3UZbdMdjpM2yCFknRwAL2ZHs4a8YmpTQ25HapoePvNYVhIpjz4m-ki84H6-HFfDVhcNXKHyv6dRpxcvZP7Qgu-hGf2JOq6n4Vr4dBagX8DWxzwXzrl0TZh9-hoqhjuU347lbNVRO0GvkIpi65QamGP2JPhd3Sk0f7GvCF_eJlZi6HBb-dOBTcJ3M5Wa9gifGn235a3bFGUZycwZMAtixJ1VavbJLDpg4MIxxjf061308UvlvXrdtgnCcmdqoUkzUj4g9MEgrZVbuGlGC0]--></g></svg>

<svg xmlns="http://www.w3.org/2000/svg" width="478" height="252" viewBox="0 0 478 252"><rect width="354" height="39.789" x="62" y="7" fill="#3D176E" rx="2.5" ry="2.5" style="stroke:#000d19;stroke-width:.5"/><circle cx="77" cy="26.895" r="11" fill="#ADD1B2" style="stroke:#181818;stroke-width:1"/><path d="M79.969 32.535q-.578.297-1.219.438-.64.156-1.344.156-2.5 0-3.828-1.64-1.312-1.657-1.312-4.782t1.312-4.781q1.328-1.656 3.828-1.656.703 0 1.344.156.656.156 1.219.453v2.719q-.625-.578-1.219-.844-.594-.281-1.219-.281-1.344 0-2.031 1.078-.687 1.062-.687 3.156t.687 3.172q.688 1.062 2.031 1.062.625 0 1.219-.265.594-.281 1.219-.86z"/><text x="96" y="32.78" fill="#D9B8FF" font-family="Helvetica" font-size="17" textLength="312">azure_cosmos_db_restorable_account</text><rect width="464" height="39.789" x="7" y="206.58" fill="#3D176E" rx="2.5" ry="2.5" style="stroke:#000d19;stroke-width:.5"/><circle cx="22" cy="226.475" r="11" fill="#ADD1B2" style="stroke:#181818;stroke-width:1"/><path d="M24.969 232.115q-.578.297-1.219.438-.64.156-1.344.156-2.5 0-3.828-1.64-1.312-1.657-1.312-4.782t1.312-4.781q1.328-1.656 3.828-1.656.703 0 1.344.156.656.156 1.219.453v2.719q-.625-.578-1.219-.844-.594-.281-1.219-.281-1.343 0-2.031 1.078-.687 1.062-.687 3.156t.687 3.172q.688 1.062 2.031 1.062.625 0 1.219-.265.594-.281 1.219-.86z"/><text x="41" y="232.36" fill="#D9B8FF" font-family="Helvetica" font-size="17" textLength="422">azure_cosmos_db_restorable_mongo_db_collection</text><rect width="460" height="39.789" x="9" y="106.79" fill="#3D176E" rx="2.5" ry="2.5" style="stroke:#000d19;stroke-width:.5"/><circle cx="24" cy="126.684" r="11" fill="#ADD1B2" style="stroke:#181818;stroke-width:1"/><path d="M26.969 132.325q-.578.297-1.219.438-.64.156-1.344.156-2.5 0-3.828-1.64-1.312-1.657-1.312-4.782t1.312-4.781q1.328-1.656 3.828-1.656.703 0 1.344.156.656.156 1.219.453v2.719q-.625-.579-1.219-.844-.594-.281-1.219-.281-1.343 0-2.031 1.078-.687 1.062-.687 3.156t.687 3.172q.688 1.062 2.031 1.062.625 0 1.219-.265.594-.281 1.219-.86z"/><text x="43" y="132.57" fill="#D9B8FF" font-family="Helvetica" font-size="17" textLength="418">azure_cosmos_db_restorable_mongo_db_database</text><path fill="none" d="M239 47.22v53.19" style="stroke:#1a83af;stroke-width:2"/><path fill="#1A83AF" d="m239 106.41 4-9-4 4-4-4z" style="stroke:#1a83af;stroke-width:2"/><path fill="none" d="M239 147.01v53.19" style="stroke:#1a83af;stroke-width:2"/><path fill="#1A83AF" d="m239 206.2 4-9-4 4-4-4z" style="stroke:#1a83af;stroke-width:2"/></svg>
